src/images_karasa_jaga_svg/cmd/32/basicshapes.pentagon.svg

<svg height="32" viewBox="0 0 32 32" width="32" xmlns="http://www.w3.org/2000/svg" xmlns:xlink="http://www.w3.org/1999/xlink"><linearGradient id="a" gradientUnits="userSpaceOnUse" x1=".720385" x2="127.27961" y1="64.376144" y2="64.376144"><stop offset="0" stop-color="#7c9fcf"/><stop offset=".5" stop-color="#7c9ece"/><stop offset="1" stop-color="#7b9dcf"/></linearGradient><linearGradient id="b" gradientUnits="userSpaceOnUse" x1="64" x2="64" y1="128" y2="0"><stop offset="0" stop-color="#fff"/><stop offset=".4375" stop-color="#fff"/><stop offset=".71875" stop-color="#f1f1f1"/><stop offset=".84375" stop-color="#eaeaea"/><stop offset="1" stop-color="#dfdfdf"/></linearGradient><g transform="scale(.25)"><path d="m64.115234 4a4.0023528 4.0023528 0 0 0 -2.464843.7617188l-59.2792972 43.0644532a4.0023528 4.0023528 0 0 0 -1.45507818 4.474609l22.63867238 69.685549a4.0023528 4.0023528 0 0 0 3.80664 2.76562l73.269532.002a4.0023528 4.0023528 0 0 0 3.80664-2.76563l22.64648-69.681639a4.0023528 4.0023528 0 0 0 -1.45507-4.47461l-59.275394-43.0703522a4.0023528 4.0023528 0 0 0 -2.238282-.7617188z" fill="url(#a)"/><path d="m100.63162 120.75274-73.270063-.00343-22.6384369-69.685025 59.2787399-43.064285 59.2747 43.069833z" fill="url(#b)"/></g></svg>

<?xml version="1.0" encoding="UTF-8" standalone="no"?>
<svg
   xmlns:dc="http://purl.org/dc/elements/1.1/"
   xmlns:cc="http://creativecommons.org/ns#"
   xmlns:rdf="http://www.w3.org/1999/02/22-rdf-syntax-ns#"
   xmlns:svg="http://www.w3.org/2000/svg"
   xmlns="http://www.w3.org/2000/svg"
   xmlns:xlink="http://www.w3.org/1999/xlink"
   xmlns:sodipodi="http://sodipodi.sourceforge.net/DTD/sodipodi-0.dtd"
   xmlns:inkscape="http://www.inkscape.org/namespaces/inkscape"
   height="128"
   viewBox="0 0 128 128"
   width="128"
   version="1.1"
   id="svg31"
   sodipodi:docname="basicshapes.pentagon.svg"
   inkscape:version="0.92.3 (unknown)"
   inkscape:export-filename="/home/rizmut/Dokumen/Rizmut/Github/libreoffice-style-karasa-jaga/build/images_karasa_jaga/cmd/32/basicshapes.pentagon.png"
   inkscape:export-xdpi="24"
   inkscape:export-ydpi="24">
  <metadata
     id="metadata37">
    <rdf:RDF>
      <cc:Work
         rdf:about="">
        <dc:format>image/svg+xml</dc:format>
        <dc:type
           rdf:resource="http://purl.org/dc/dcmitype/StillImage" />
        <dc:title></dc:title>
      </cc:Work>
    </rdf:RDF>
  </metadata>
  <defs
     id="defs35">
    <linearGradient
       id="linearGradient3369">
      <stop
         id="stop3372"
         offset="0"
         style="stop-color:#ffffff;stop-opacity:1;" />
      <stop
         style="stop-color:#ffffff;stop-opacity:1;"
         offset="0.4375"
         id="stop3374" />
      <stop
         style="stop-color:#f1f1f1;stop-opacity:1;"
         offset="0.71875"
         id="stop3376" />
      <stop
         id="stop3378"
         offset="0.84375"
         style="stop-color:#eaeaea;stop-opacity:1;" />
      <stop
         id="stop3384"
         offset="1"
         style="stop-color:#dfdfdf;stop-opacity:1;" />
    </linearGradient>
    <linearGradient
       id="linearGradient7422">
      <stop
         style="stop-color:#7c9fcf;stop-opacity:1"
         offset="0"
         id="stop7424" />
      <stop
         id="stop5348"
         offset="0.5"
         style="stop-color:#7c9ece;stop-opacity:1" />
      <stop
         id="stop7426"
         offset="1"
         style="stop-color:#7b9dcf;stop-opacity:1" />
    </linearGradient>
    <linearGradient
       inkscape:collect="always"
       xlink:href="#linearGradient7422"
       id="linearGradient1166"
       x1="0.72038519"
       y1="64.376144"
       x2="127.27961"
       y2="64.376144"
       gradientUnits="userSpaceOnUse" />
    <linearGradient
       inkscape:collect="always"
       xlink:href="#linearGradient3369"
       id="linearGradient1174"
       x1="64"
       y1="128"
       x2="64"
       y2="0"
       gradientUnits="userSpaceOnUse" />
  </defs>
  <sodipodi:namedview
     pagecolor="#ffffff"
     bordercolor="#666666"
     borderopacity="1"
     objecttolerance="10"
     gridtolerance="10"
     guidetolerance="10"
     inkscape:pageopacity="0"
     inkscape:pageshadow="2"
     inkscape:window-width="1366"
     inkscape:window-height="706"
     id="namedview33"
     showgrid="true"
     inkscape:zoom="2.8284271"
     inkscape:cx="99.956806"
     inkscape:cy="101.04642"
     inkscape:window-x="-2"
     inkscape:window-y="-1"
     inkscape:window-maximized="0"
     inkscape:current-layer="svg31"
     inkscape:snap-global="true">
    <inkscape:grid
       type="xygrid"
       id="grid844"
       spacingx="4"
       spacingy="4"
       empspacing="1" />
  </sodipodi:namedview>
  <linearGradient
     id="a">
    <stop
       offset="0"
       stop-color="#f9f9fa"
       id="stop2" />
    <stop
       offset="1"
       stop-color="#f9f9fa"
       stop-opacity="0"
       id="stop4" />
  </linearGradient>
  <linearGradient
     id="b"
     gradientUnits="userSpaceOnUse"
     x1="42.276669"
     x2="-13.469376"
     xlink:href="#a"
     y1="50.867565"
     y2="104.97279" />
  <linearGradient
     id="c"
     gradientUnits="userSpaceOnUse"
     x1="-1.817377"
     x2="2.172436"
     xlink:href="#a"
     y1="55.003803"
     y2="116.784" />
  <path
     sodipodi:type="inkscape:offset"
     inkscape:radius="4.0019526"
     inkscape:original="M 64.001953 8 L 4.7226562 51.064453 L 27.361328 120.75 L 100.63086 120.75195 L 123.27734 51.070312 L 64.001953 8 z "
     style="fill:url(#linearGradient1166);fill-opacity:1.0;stroke:none;stroke-width:3.56753993;stroke-linecap:round;stroke-linejoin:bevel;stroke-opacity:0.73039198"
     id="path1156"
     d="M 64.115234,4 A 4.0023528,4.0023528 0 0 0 61.650391,4.7617188 L 2.3710938,47.826172 A 4.0023528,4.0023528 0 0 0 0.91601562,52.300781 L 23.554688,121.98633 a 4.0023528,4.0023528 0 0 0 3.80664,2.76562 l 73.269532,0.002 a 4.0023528,4.0023528 0 0 0 3.80664,-2.76563 l 22.64648,-69.681639 a 4.0023528,4.0023528 0 0 0 -1.45507,-4.47461 L 66.353516,4.7617188 A 4.0023528,4.0023528 0 0 0 64.115234,4 Z" />
  <path
     inkscape:connector-curvature="0"
     d="M 100.63162,120.75274 27.361557,120.74931 4.7231201,51.064285 64.00186,8 l 59.2747,43.069833 z"
     style="fill:url(#linearGradient1174);fill-opacity:1;stroke:none;stroke-width:3.56753993;stroke-linecap:round;stroke-linejoin:bevel;stroke-opacity:0.73039198"
     id="path7" />
</svg>
